icon/lg/netlify.svg

<?xml version="1.0" encoding="UTF-8"?>
<svg viewBox="0 0 256 256" version="1.1" xmlns="http://www.w3.org/2000/svg" xmlns:xlink="http://www.w3.org/1999/xlink" preserveAspectRatio="xMidYMid" height="1em" width="1em">
  <defs>
    <radialGradient cx="50%" cy="-50%" fx="50%" fy="-50%" r="99.999879%" id="radialGradient-1">
      <stop stop-color="#20C6B7" offset="0%"/>
      <stop stop-color="#4D9ABF" offset="100%"/>
    </radialGradient>
  </defs>
  <g>
    <path d="M185.531657,88.8386745 L185.438083,88.7986152 C185.384611,88.7785856 185.33114,88.7585559 185.284353,88.71182 C185.128922,88.5450526 185.059783,88.3156671 185.097204,88.0909005 L190.263857,56.537508 L214.49299,80.7466915 L189.294692,91.4558836 C189.224664,91.4840915 189.149609,91.4977229 189.074123,91.4959429 L188.973865,91.4959429 C188.940445,91.4759132 188.907026,91.449207 188.840187,91.3824415 C187.90243,90.3394667 186.781011,89.4772625 185.531657,88.8386745 Z M220.675596,86.9158271 L246.582387,112.794149 C251.962925,118.175451 254.656536,120.859426 255.639069,123.9707 C255.786115,124.431382 255.906425,124.892064 256,125.3661 L194.087047,99.1739796 C194.053777,99.1602565 194.020356,99.1469026 193.986789,99.1339203 C193.739485,99.033772 193.452077,98.9202706 193.452077,98.6665615 C193.452077,98.4128525 193.746169,98.2926745 193.993473,98.1925262 L194.07368,98.1591434 L220.675596,86.9158271 Z M254.943944,133.671732 C253.607164,136.182117 251.000444,138.785972 246.589071,143.199174 L217.380434,172.369037 L179.603039,164.510734 L179.402522,164.470674 C179.068327,164.417262 178.714081,164.357173 178.714081,164.056728 C178.424059,160.910007 176.838377,158.025062 174.336127,156.091599 C174.182397,155.938039 174.222501,155.697683 174.269288,155.477357 C174.269288,155.443974 174.269288,155.410591 174.282656,155.383885 L181.38764,111.812696 L181.414376,111.665811 C181.454479,111.331984 181.514634,110.944744 181.81541,110.944744 C184.891098,110.562547 187.68443,108.962956 189.568732,106.504836 C189.628887,106.43807 189.66899,106.364628 189.749197,106.324569 C189.963082,106.22442 190.21707,106.324569 190.437639,106.41804 L254.93726,133.671732 L254.943944,133.671732 Z M210.663116,179.078974 L162.632621,227.056688 L170.853816,176.581943 L170.867184,176.515177 C170.873868,176.448412 170.887235,176.381646 170.907287,176.321557 C170.974126,176.16132 171.147907,176.094554 171.315005,176.027789 L171.395212,175.994406 C173.195291,175.227234 174.787364,174.044216 176.040521,172.542628 C176.200935,172.355684 176.394768,172.175417 176.642072,172.142034 C176.706258,172.131568 176.771719,172.131568 176.835905,172.142034 L210.656432,179.08565 L210.663116,179.078974 Z M152.466411,237.211726 L147.052453,242.619735 L87.198141,156.211777 C87.1764966,156.180172 87.1542123,156.149008 87.1313021,156.118306 C87.0377275,155.991451 86.937469,155.864597 86.9575207,155.717712 C86.9642046,155.610888 87.0310436,155.517416 87.1045665,155.437297 L87.1714054,155.350502 C87.3518707,155.08344 87.5056004,154.816378 87.6726978,154.529286 L87.8063758,154.295607 L87.8264275,154.275577 C87.9200021,154.11534 88.0068928,153.961779 88.1673063,153.874984 C88.3076682,153.808218 88.5015013,153.834924 88.6552309,153.868307 L154.966189,167.528536 C155.151602,167.557337 155.326509,167.6332 155.474165,167.748862 C155.561056,167.835657 155.581108,167.929129 155.601159,168.035954 C156.538781,171.579604 159.080685,174.481797 162.472207,175.880905 C162.659356,175.974376 162.579149,176.181349 162.492259,176.401676 C162.448907,176.498239 162.41532,176.598887 162.392,176.702121 C161.556513,181.776301 154.391374,225.427609 152.466411,237.211726 Z M141.157254,248.501779 C137.166967,252.447622 134.814235,254.537383 132.154043,255.378629 C129.531121,256.207124 126.716183,256.207124 124.093261,255.378629 C120.978565,254.390499 118.284953,251.706524 112.904415,246.325222 L52.796115,186.282975 L68.4965928,161.96029 C68.5701157,161.840112 68.6436385,161.733287 68.7639487,161.646492 C68.9310462,161.526314 69.1716665,161.579727 69.3721835,161.646492 C72.9758773,162.732509 76.8450731,162.536667 80.3204094,161.092338 C80.5008747,161.025573 80.6813399,160.978837 80.8217018,161.105691 C80.8918911,161.169689 80.9546672,161.241354 81.0088509,161.319341 L141.157254,248.508455 L141.157254,248.501779 Z M47.0011749,180.494403 L33.2122921,166.720673 L60.442495,155.116823 C60.5120976,155.086505 60.5871334,155.070606 60.6630636,155.070087 C60.8903162,155.070087 61.0239942,155.29709 61.1443043,155.504063 C61.4179565,155.924608 61.7078093,156.33441 62.0132111,156.732549 L62.1001018,156.839374 C62.1803086,156.952875 62.1268374,157.066376 62.0466306,157.173201 L47.0078588,180.494403 L47.0011749,180.494403 Z M27.1098927,160.624979 L9.66491737,143.199174 C6.69726639,140.234785 4.54505104,138.084934 3.04785776,136.235529 L56.091277,147.225136 C56.1579088,147.237472 56.2247588,147.248601 56.2917939,147.258519 C56.619305,147.311931 56.9802355,147.37202 56.9802355,147.679142 C56.9802355,148.01297 56.5858855,148.16653 56.2516906,148.293385 L56.0979609,148.36015 L27.1098927,160.624979 Z M0,127.275594 C0.0604502235,126.153061 0.262565974,125.042646 0.601550873,123.9707 C1.59076787,120.859426 4.2776951,118.175451 9.66491737,112.794149 L31.9891387,90.4944599 C42.2678594,105.395725 52.574449,120.277789 62.9088536,135.140574 C63.0893188,135.38093 63.2898358,135.647992 63.0826349,135.848289 C62.1067857,136.923214 61.1309365,138.098287 60.442495,139.373509 C60.3678094,139.537425 60.2528491,139.679819 60.1083,139.787455 C60.0214094,139.840868 59.9278348,139.820838 59.8275763,139.800809 L59.8142085,139.800809 L0,127.268917 L0,127.275594 Z M37.964544,84.5256209 L67.9819326,54.5412184 C70.8025378,55.7763809 81.069006,60.1094642 90.2526827,63.9818653 C97.2039372,66.9195489 103.540273,69.5901704 105.532075,70.4581223 C105.732592,70.538241 105.913057,70.6183596 105.999948,70.8186562 C106.053419,70.9388342 106.026683,71.0923949 105.999948,71.2192495 C105.034732,75.6158947 106.348462,80.2026244 109.495627,83.4239895 C109.696144,83.6242861 109.495627,83.911378 109.321845,84.1584104 L109.228271,84.2986181 L78.7496932,131.455117 C78.6694864,131.588648 78.5959636,131.702149 78.4622856,131.788944 C78.301872,131.889093 78.0746195,131.842357 77.8874703,131.795621 C76.7020471,131.485387 75.4834144,131.319494 74.2581134,131.301556 C73.161954,131.301556 71.97222,131.501852 70.7691183,131.722179 L70.7624344,131.722179 C70.6287564,131.742208 70.5084463,131.768915 70.4015039,131.688796 C70.2833886,131.592374 70.181798,131.477365 70.1007284,131.348292 L37.964544,84.5256209 Z M74.0442286,48.4855843 L112.904415,9.66810134 C118.284953,4.29347565 120.978565,1.60282452 124.093261,0.621371137 C126.716183,-0.207123712 129.531121,-0.207123712 132.154043,0.621371137 C135.26874,1.60282452 137.962351,4.29347565 143.342889,9.66810134 L151.764601,18.0805589 L124.126681,60.8372085 C124.058309,60.96168 123.965028,61.0707669 123.852641,61.1576831 C123.685543,61.2711845 123.451607,61.2244486 123.25109,61.1576831 C118.82732,59.8166713 114.026083,60.7408929 110.418005,63.628008 C110.237539,63.8149515 109.970184,63.7081266 109.742931,63.6079783 C106.133626,62.0389882 78.0612517,50.1881055 74.0442286,48.4855843 Z M157.633064,23.942573 L183.152189,49.4336549 L177.003003,87.4766576 L177.003003,87.5768059 C176.997512,87.6635077 176.979502,87.7489613 176.949531,87.8305149 C176.882692,87.964046 176.749014,87.9907522 176.615336,88.0308116 C175.300608,88.4286107 174.062357,89.0447985 172.95256,89.8535107 C172.904848,89.8874753 172.860126,89.925447 172.818882,89.9670121 C172.745359,90.0471308 172.671836,90.1205729 172.551526,90.133926 C172.453607,90.136948 172.356022,90.1210796 172.264118,90.0871901 L133.377196,73.5827495 L133.303674,73.5493667 C133.056369,73.4492184 132.762278,73.3290404 132.762278,73.0753314 C132.53371,70.9106875 131.825947,68.8239396 130.690269,66.9662848 C130.50312,66.6591633 130.295919,66.3386887 130.456333,66.0248907 L157.633064,23.942573 Z M131.351975,81.4009938 L167.805958,96.8238327 C168.006475,96.9173045 168.227044,97.0040997 168.313934,97.2110728 C168.348719,97.335548 168.348719,97.4671613 168.313934,97.5916364 C168.206992,98.1257607 168.113417,98.7333271 168.113417,99.34757 L168.113417,100.369083 C168.113417,100.622792 167.852745,100.729617 167.612125,100.829765 L167.538602,100.856471 C161.763714,103.320119 86.4629122,135.394283 86.3492859,135.394283 C86.2356596,135.394283 86.1153495,135.394283 86.0017232,135.280782 C85.8012062,135.080485 86.0017232,134.80007 86.1821885,134.546361 C86.2140937,134.502354 86.2452892,134.457838 86.275763,134.41283 L116.232997,88.0775474 L116.286468,87.9974288 C116.460249,87.7170135 116.660766,87.4032155 116.981593,87.4032155 L117.282369,87.4499514 C117.964126,87.5434231 118.565677,87.6302183 119.173912,87.6302183 C123.718963,87.6302183 127.929819,85.4202791 130.469701,81.6413497 C130.530215,81.5404379 130.606999,81.4502028 130.696953,81.3742876 C130.877418,81.2407565 131.144774,81.307522 131.351975,81.4009938 Z M89.6043445,142.725139 L171.682619,107.760028 C171.682619,107.760028 171.802929,107.760028 171.916556,107.873529 C172.364377,108.320858 172.745359,108.621303 173.112974,108.901718 L173.293439,109.01522 C173.460536,109.108691 173.627634,109.215516 173.641002,109.389107 C173.641002,109.455872 173.641002,109.495932 173.627634,109.556021 L166.596172,152.69991 L166.569437,152.873501 C166.52265,153.207328 166.475862,153.587892 166.161719,153.587892 C162.355867,153.844495 158.921931,155.960553 156.984726,159.242933 L156.951307,159.296345 C156.857732,159.449906 156.770841,159.59679 156.617112,159.676909 C156.47675,159.743674 156.296285,159.716968 156.149239,159.683585 L90.69382,146.196947 C90.626981,146.183594 89.6778674,142.731816 89.6043445,142.725139 Z" fill="url(#radialGradient-1)" fill-rule="nonzero"/>
  </g>
</svg>

<svg width="256" height="256" xmlns="http://www.w3.org/2000/svg" preserveAspectRatio="xMidYMid"><defs><radialGradient cx="50%" cy="-50%" fx="50%" fy="-50%" r="100%" id="a"><stop stop-color="#20C6B7" offset="0%"/><stop stop-color="#4D9ABF" offset="100%"/></radialGradient></defs><path d="m185.532 88.839-.094-.04a.396.396 0 0 1-.154-.087.734.734 0 0 1-.187-.621l5.167-31.553 24.229 24.209-25.198 10.709a.555.555 0 0 1-.22.04h-.101a.694.694 0 0 1-.134-.114 11.468 11.468 0 0 0-3.308-2.543Zm35.144-1.923 25.906 25.878c5.38 5.381 8.075 8.065 9.057 11.177.147.46.267.921.361 1.395l-61.913-26.192a4.868 4.868 0 0 0-.1-.04c-.248-.1-.535-.214-.535-.467 0-.254.294-.374.541-.474l.08-.034 26.603-11.243Zm34.268 46.756c-1.337 2.51-3.944 5.114-8.355 9.527l-29.209 29.17-37.777-7.858-.2-.04c-.335-.054-.689-.114-.689-.414a11.387 11.387 0 0 0-4.378-7.965c-.154-.154-.113-.394-.067-.615 0-.033 0-.066.014-.093l7.105-43.571.026-.147c.04-.334.1-.721.401-.721a11.566 11.566 0 0 0 7.754-4.44c.06-.067.1-.14.18-.18.214-.1.468 0 .689.093l64.5 27.254h.006Zm-44.28 45.407-48.031 47.978 8.22-50.475.014-.067a.905.905 0 0 1 .04-.193c.067-.16.24-.227.408-.294l.08-.034c1.8-.767 3.392-1.95 4.646-3.451.16-.187.354-.368.601-.401.064-.01.13-.01.194 0l33.82 6.944.007-.007Zm-58.198 58.133-5.414 5.408-59.854-86.408a2.831 2.831 0 0 0-.067-.094c-.093-.127-.194-.253-.173-.4.006-.107.073-.2.147-.28l.066-.087c.18-.268.335-.535.502-.822l.133-.233.02-.02c.094-.16.18-.314.341-.401.14-.067.335-.04.488-.007l66.311 13.66c.186.03.36.105.508.22.087.088.107.181.127.288a11.735 11.735 0 0 0 6.871 7.845c.187.093.107.3.02.52a1.588 1.588 0 0 0-.1.301c-.835 5.074-8 48.726-9.926 60.51Zm-11.309 11.29c-3.99 3.946-6.343 6.035-9.003 6.877a13.382 13.382 0 0 1-8.06 0c-3.115-.989-5.809-3.672-11.19-9.054l-60.108-60.042 15.7-24.323a1 1 0 0 1 .268-.314c.167-.12.408-.066.608 0a16.285 16.285 0 0 0 10.948-.554c.18-.066.361-.113.502.014.07.064.133.135.187.213l60.148 87.19v-.007Zm-94.156-68.008-13.789-13.773 27.23-11.604a.562.562 0 0 1 .221-.047c.227 0 .361.227.481.434.274.42.564.83.87 1.229l.086.106c.08.114.027.227-.053.334l-15.04 23.321h-.006ZM27.11 160.625 9.665 143.199c-2.968-2.964-5.12-5.114-6.617-6.963l53.043 10.99.2.033c.328.053.69.113.69.42 0 .334-.395.488-.73.614l-.153.067-28.988 12.265ZM0 127.275a13.34 13.34 0 0 1 .602-3.304c.989-3.112 3.676-5.796 9.063-11.177l22.324-22.3a14524.43 14524.43 0 0 0 30.92 44.647c.18.24.38.507.174.707-.976 1.075-1.952 2.25-2.64 3.526-.075.163-.19.306-.335.413-.087.054-.18.034-.28.014h-.014L0 127.269v.007Zm37.965-42.75 30.017-29.984c2.82 1.235 13.087 5.568 22.27 9.44 6.952 2.939 13.288 5.61 15.28 6.477.2.08.381.16.468.36.053.12.027.274 0 .401a13.363 13.363 0 0 0 3.496 12.205c.2.2 0 .487-.174.734l-.094.14-30.478 47.157c-.08.134-.154.247-.288.334-.16.1-.387.053-.575.007a15.215 15.215 0 0 0-3.629-.494c-1.096 0-2.286.2-3.489.42h-.007c-.133.02-.254.047-.36-.033a1.403 1.403 0 0 1-.301-.34L37.965 84.525Zm36.08-36.04 38.86-38.817c5.38-5.375 8.074-8.065 11.188-9.047a13.382 13.382 0 0 1 8.061 0c3.115.982 5.808 3.672 11.189 9.047l8.422 8.413-27.638 42.756a1.035 1.035 0 0 1-.274.32c-.167.114-.401.067-.602 0a14.028 14.028 0 0 0-12.833 2.471c-.18.187-.448.08-.675-.02-3.61-1.569-31.682-13.42-35.699-15.122Zm83.588-24.542 25.52 25.49-6.15 38.044v.1a.9.9 0 0 1-.053.254c-.067.133-.201.16-.335.2a12.237 12.237 0 0 0-3.662 1.823 1.029 1.029 0 0 0-.134.113c-.074.08-.147.154-.267.167a.763.763 0 0 1-.288-.047l-38.887-16.504-.073-.034c-.248-.1-.542-.22-.542-.474a14.664 14.664 0 0 0-2.072-6.109c-.187-.307-.394-.627-.234-.941l27.177-42.082ZM131.352 81.4l36.454 15.423c.2.093.421.18.508.387a.707.707 0 0 1 0 .38c-.107.535-.2 1.142-.2 1.757v1.021c0 .254-.261.36-.502.46l-.073.027c-5.775 2.464-81.076 34.538-81.19 34.538-.113 0-.234 0-.347-.113-.2-.2 0-.48.18-.735l.094-.133 29.957-46.335.053-.08c.174-.281.375-.595.696-.595l.3.047c.682.093 1.284.18 1.892.18 4.545 0 8.756-2.21 11.296-5.989.06-.1.137-.19.227-.267.18-.133.448-.066.655.027Zm-41.748 61.324 82.079-34.965s.12 0 .234.114c.447.447.828.747 1.196 1.028l.18.113c.168.094.335.2.348.374 0 .067 0 .107-.013.167l-7.032 43.144-.027.174c-.046.333-.093.714-.407.714a11.558 11.558 0 0 0-9.177 5.655l-.034.053c-.093.154-.18.3-.334.38-.14.068-.32.041-.468.008l-65.455-13.487c-.067-.013-1.016-3.465-1.09-3.472Z" fill="url(#a)"/></svg>
